contributed-vectors/next.svg

<svg width="192" height="192" viewBox="0 0 192 192" fill="none" xmlns="http://www.w3.org/2000/svg">
<g clip-path="url(#clip0)">
<path d="M172.5 29.1V162.9C172.5 168.2 168.2 172.5 162.9 172.5H29.1C23.8 172.5 19.5 168.2 19.5 162.9V29.1C19.5 23.8 23.8 19.5 29.1 19.5H163C168.2 19.5 172.5 23.8 172.5 29.1Z" fill="#9ABEFF"/>
<path d="M110.022 116.854C110.022 116.854 110.434 116.108 110.655 117.171C110.655 117.171 111.102 122.916 107.7 126.424C105.436 128.764 100.222 132.112 94.3116 130.648C94.3116 130.648 103.755 129.999 106.163 120.643L106.426 119.591C106.426 119.591 108.802 118.99 110.022 116.854ZM98.5458 62.1933C98.5402 62.2026 98.5402 62.2156 98.5402 62.2193C98.4846 62.6978 98.7999 63.1206 99.2394 63.1726C99.6289 63.23 99.9813 62.963 100.094 62.5716C100.31 62.7349 100.495 62.9092 100.645 63.0539C99.7995 63.0613 99.666 63.4934 98.9427 63.3395C98.5625 63.2709 98.1656 62.848 98.147 62.3268C98.3102 62.2489 98.3529 62.2322 98.5458 62.1933ZM99.143 62.1618C99.2988 62.1803 99.4545 62.2285 99.6011 62.2842C99.6196 62.338 99.6382 62.3955 99.6382 62.4585C99.6382 62.6551 99.4898 62.8165 99.3117 62.8165C99.1318 62.8165 98.9835 62.6551 98.9835 62.4585C98.9835 62.3361 99.0502 62.2285 99.143 62.1618ZM131.57 87.9655C131.551 87.8561 131.536 87.7559 131.512 87.6447C131.512 87.6447 131.39 87.0512 131.028 86.1109C130.969 85.9551 130.913 85.8215 130.859 85.7047V85.7029C130.837 85.6416 130.811 85.5879 130.791 85.5396C130.14 84.0337 128.955 81.9212 126.872 79.8626C126.872 79.8626 129.068 79.6901 126.651 77.0249C126.651 77.0249 122.653 72.3308 114.965 68.7755C110.831 66.8689 106.205 67.6571 106.641 72.2696C106.942 75.5041 103.926 76.7412 101.55 76.4426C98.7628 76.0939 97.0843 73.8108 97.5313 71.9321C97.9986 69.9198 99.0558 68.3656 100.625 67.1619C101.686 66.3384 102.431 65.7635 104.362 65.3703C105.536 65.1218 107.077 64.7471 107.494 66.0769C108.299 65.6504 109.729 62.9667 105.082 62.924C105.082 62.924 104.38 61.4199 102.817 61.7278C102.817 61.7278 98.1915 57.1932 93.043 62.8165C93.043 62.8165 91.0177 63.614 90.9065 62.8424C91.3664 63.2022 92.1101 62.1024 91.0938 61.7222C90.6097 61.5368 90.0515 62.0486 89.9643 62.5364C89.8957 62.9129 90.007 63.7401 91.0214 63.894C91.2978 63.9441 91.7837 63.894 91.7837 63.894L91.4425 64.2983C89.9068 64.9586 88.4157 64.4411 88.13 63.3525C88.4861 63.562 88.8867 63.295 89.0073 62.8981C89.1334 62.4919 88.8385 61.9262 88.245 61.8372C87.4086 61.7148 87.0117 62.6885 87.1916 63.5398C87.4642 64.8584 88.7847 65.7969 90.4873 65.5651L90.1943 66.0102C90.1943 66.0102 88.4861 68.1393 87.1063 70.5615C85.6893 73.017 79.9436 75.7267 80.9247 69.8716C81.2363 68.0169 78.1353 65.782 72.7346 69.4913C69.858 71.4758 66.3101 74.4544 63.6932 79.2728C63.6932 79.2728 62.5247 81.1089 64.4554 81.1719C64.4554 81.1719 60.5124 83.0451 60.3548 91.8844L60.34 91.8863C60.34 91.8863 60.3437 92.2368 60.3492 92.7505C60.3567 93.0491 60.3622 93.357 60.3733 93.6667C60.403 94.6515 60.4494 95.8218 60.5421 96.445C60.5421 96.445 60.9798 101.772 61.9016 102.714C61.9016 102.714 61.9479 102.732 62.011 102.742C62.2855 102.99 62.6676 103.029 63.1572 102.513C63.1609 102.512 63.1665 102.506 63.1757 102.502C63.185 102.569 64.359 108.545 66.835 113.55C68.8046 117.514 72.4657 123.328 71.0302 124.741C69.6058 126.147 67.5954 123.349 67.9051 124.471C68.5746 126.854 71.0209 127.197 72.3377 126.158C75.7428 123.471 70.7612 117.022 69.2108 108.819C72.4564 107.423 72.3303 102.278 72.3303 102.278C72.3303 102.278 76.9817 102.167 78.4117 96.662C78.4117 96.662 84.0164 98.2681 86.6853 93.3755C86.6853 93.3755 86.6779 93.3403 86.663 93.2754C86.6927 93.2494 86.7094 93.2309 86.7372 93.2049C87.288 94.9093 88.4064 96.445 89.8586 97.7488C89.8586 97.7488 89.573 100.136 86.9486 100.974C86.9486 100.974 83.7308 99.6035 80.2552 100.974C77.0615 102.224 78.3486 105.676 80.6688 104.845C79.9677 104.468 79.7619 103.326 80.8895 103.085C81.1881 103.331 81.4923 103.47 81.7909 103.53V103.545C81.8279 103.53 84.673 104.055 86.6389 103.274C86.7817 103.231 86.9208 103.172 87.0581 103.085C87.0692 103.072 87.0952 103.07 87.11 103.062L87.0989 103.053C87.2825 102.936 87.4568 102.784 87.6237 102.595C88.3526 102.64 88.8051 103.75 87.8036 104.266C89.7492 104.689 90.4465 102.64 89.6434 101.538C89.6434 101.538 90.1034 101.237 90.6097 100.811C90.6097 100.811 91.2162 100.215 91.6798 99.52C91.6798 99.52 93.5809 101.033 97.1214 101.883C97.1214 101.883 95.276 104.952 92.5386 105.546C92.5386 105.546 88.6549 104.281 86.0287 105.909C86.0287 105.909 84.6099 106.659 84.8343 108.226C85.0031 109.398 85.9397 110.221 87.3418 110.023C86.7669 109.747 85.5094 108.318 87.11 107.701C87.3882 108.142 87.7777 108.38 88.2172 108.485C88.2135 108.495 88.2079 108.504 88.2079 108.504C88.2079 108.504 90.6468 109.073 93.6458 107.816C93.7663 107.777 93.8758 107.732 93.9759 107.675C94.0111 107.66 94.0519 107.651 94.089 107.627C94.089 107.627 94.0853 107.621 94.0853 107.616C94.2782 107.488 94.4303 107.341 94.4878 107.161C95.25 107.024 96.3517 107.399 95.94 108.862C96.8506 108.723 98.3288 107.055 96.1551 105.737C96.1551 105.737 97.4478 105.102 98.479 104.171L100.029 102.588C103.077 103.036 105.406 105.932 105.406 109.461C105.406 112.358 102.932 115.778 100.31 116.471C100.406 116.442 100.502 116.42 100.584 116.39L100.252 116.486C100.265 116.481 100.291 116.477 100.31 116.471C99.9034 116.562 99.4434 116.611 98.8796 116.585C96.1885 116.492 97.7798 113.358 97.7798 113.358C97.3866 113.313 96.9433 113.445 96.5594 113.881C96.1329 114.374 95.9771 115.333 96.1143 116.292C95.9771 116.251 95.8528 116.21 95.7452 116.164C93.3731 115.149 93.5605 113.365 93.5605 113.365C92.9262 113.634 92.4588 114.454 92.7407 115.8C93.1265 117.603 95.4133 118.385 97.2382 118.606C98.3399 119.658 99.9942 120.758 103.878 120.127C103.878 120.127 102.153 129.146 90.7173 128.755C90.7173 128.755 87.2287 127.453 87.3474 124.574C87.5069 120.682 90.1943 119.298 90.1943 119.298C89.1983 119.189 86.804 119.413 85.7042 122.657C85.2257 124.107 85.3277 126.496 86.663 128.145C82.3435 126.998 79.0812 123.725 80.3887 119.268C80.6002 118.556 81.023 117.818 81.5813 117.224C84.8343 114.159 89.6713 116.017 89.6713 116.017C89.4858 114.962 88.1004 113.508 85.7042 113.365C83.193 113.218 78.4877 114.752 78.1409 120.442C77.8163 125.713 81.1491 129.512 89.4283 130.682L89.5359 130.786C89.5359 130.786 94.5675 134.343 101.686 132.44C101.686 132.44 116.031 129.482 112.971 113.141C112.971 113.141 116.345 102.263 109.275 96.0073C113.65 99.5812 118.895 97.5021 118.895 97.5021C118.515 107.413 122.769 108.673 122.769 108.673L122.905 108.591C122.905 108.591 115.048 125.585 119.598 127.739C121.182 128.486 123.025 128.122 123.971 126.116C124.745 124.458 122.254 127.711 120.816 126.294C119.099 124.613 121.215 120.491 123.303 116.242C126.197 110.388 128.153 106.087 128.541 103.209C128.541 103.209 128.966 103.506 129.452 103.274C129.472 103.296 129.491 103.315 129.509 103.316C130.631 103.027 131.375 98.3256 131.49 97.5541C132.326 93.2494 132.031 90.0335 131.57 87.9655Z" fill="white"/>
</g>
<defs>
<clipPath id="clip0">
<rect width="192" height="192" fill="white"/>
</clipPath>
</defs>
</svg>

<svg xmlns="http://www.w3.org/2000/svg" width="192" height="192" fill="none"><g clip-path="url(#a)"><path fill="#9ABEFF" d="M172.5 29.1v133.8c0 5.3-4.3 9.6-9.6 9.6H29.1c-5.3 0-9.6-4.3-9.6-9.6V29.1c0-5.3 4.3-9.6 9.6-9.6H163c5.2 0 9.5 4.3 9.5 9.6Z"/><path fill="#fff" d="M110.022 116.854s.412-.746.633.317c0 0 .447 5.745-2.955 9.253-2.264 2.34-7.478 5.688-13.388 4.224 0 0 9.443-.649 11.851-10.005l.263-1.052s2.376-.601 3.596-2.737Zm-11.476-54.66c-.006.009-.006.022-.006.025-.055.479.26.902.7.954.389.057.741-.21.854-.601.216.163.401.337.551.482-.846.007-.979.44-1.702.285-.38-.068-.777-.491-.796-1.012.163-.078.206-.095.399-.134Zm.597-.032c.156.018.311.066.458.122a.533.533 0 0 1 .037.175c0 .196-.148.357-.326.357-.18 0-.328-.16-.328-.358a.37.37 0 0 1 .159-.296Zm32.427 25.804c-.019-.11-.034-.21-.058-.321 0 0-.122-.594-.484-1.534a6.2 6.2 0 0 0-.169-.406v-.002c-.022-.061-.048-.115-.068-.163-.651-1.506-1.836-3.619-3.919-5.677 0 0 2.196-.173-.221-2.838 0 0-3.998-4.694-11.686-8.25-4.134-1.906-8.76-1.118-8.324 3.495.301 3.234-2.715 4.471-5.091 4.173-2.787-.35-4.466-2.632-4.019-4.51.468-2.013 1.525-3.567 3.094-4.771 1.061-.824 1.806-1.399 3.737-1.792 1.174-.248 2.715-.623 3.132.707.805-.427 2.235-3.11-2.412-3.153 0 0-.702-1.504-2.265-1.196 0 0-4.625-4.535-9.774 1.088 0 0-2.025.798-2.137.026.46.36 1.204-.74.188-1.12-.484-.185-1.042.327-1.13.814-.068.377.043 1.204 1.057 1.358.277.05.763 0 .763 0l-.342.404c-1.535.66-3.026.143-3.312-.946.356.21.757-.057.877-.454.126-.406-.169-.972-.762-1.06-.836-.123-1.233.85-1.053 1.702.272 1.318 1.593 2.257 3.295 2.025l-.293.445s-1.708 2.13-3.088 4.551c-1.417 2.456-7.162 5.166-6.181-.69.311-1.854-2.79-4.089-8.19-.38-2.877 1.985-6.425 4.963-9.042 9.782 0 0-1.168 1.836.762 1.899 0 0-3.943 1.873-4.1 10.712l-.015.002.01.865c.007.298.012.606.023.916.03.984.076 2.155.17 2.778 0 0 .437 5.327 1.359 6.269 0 0 .046.018.109.028.274.248.657.287 1.146-.229.004-.001.01-.007.019-.011.009.067 1.183 6.043 3.659 11.048 1.97 3.964 5.63 9.778 4.195 11.191-1.424 1.406-3.435-1.392-3.125-.27.67 2.383 3.116 2.726 4.433 1.687 3.405-2.687-1.577-9.136-3.127-17.339 3.245-1.396 3.12-6.541 3.12-6.541s4.65-.111 6.08-5.616c0 0 5.605 1.606 8.274-3.287l-.022-.1c.03-.026.046-.044.074-.07.551 1.704 1.67 3.24 3.122 4.544 0 0-.286 2.387-2.91 3.225 0 0-3.218-1.37-6.694 0-3.194 1.25-1.906 4.702.414 3.871-.701-.377-.907-1.519.22-1.76.3.246.603.385.902.445v.015c.037-.015 2.882.51 4.848-.271a1.67 1.67 0 0 0 .42-.189c.01-.013.036-.015.051-.023l-.011-.009c.183-.117.358-.269.525-.458.729.045 1.181 1.155.18 1.671 1.945.423 2.642-1.626 1.84-2.728 0 0 .46-.301.966-.727 0 0 .606-.596 1.07-1.291 0 0 1.9 1.513 5.441 2.363 0 0-1.845 3.069-4.582 3.663 0 0-3.884-1.265-6.51.363 0 0-1.42.75-1.195 2.317.17 1.172 1.106 1.995 2.508 1.797-.575-.276-1.833-1.705-.232-2.322.278.441.668.679 1.107.784-.004.01-.01.019-.01.019s2.44.569 5.439-.688c.12-.039.23-.084.33-.141.035-.015.076-.024.113-.048 0 0-.004-.006-.004-.011.193-.128.345-.275.403-.455.762-.137 1.864.238 1.452 1.701.91-.139 2.389-1.807.215-3.125 0 0 1.293-.635 2.324-1.566l1.55-1.583c3.048.448 5.377 3.344 5.377 6.873 0 2.897-2.474 6.317-5.096 7.01.096-.029.192-.051.274-.081l-.332.096c.013-.005.039-.009.058-.015-.407.091-.867.14-1.43.114-2.691-.093-1.1-3.227-1.1-3.227-.393-.045-.837.087-1.22.523-.427.493-.583 1.452-.446 2.411a3.521 3.521 0 0 1-.369-.128c-2.372-1.015-2.184-2.799-2.184-2.799-.635.269-1.102 1.089-.82 2.435.385 1.803 2.672 2.585 4.497 2.806 1.102 1.052 2.756 2.152 6.64 1.521 0 0-1.725 9.019-13.16 8.628 0 0-3.49-1.302-3.37-4.181.159-3.892 2.846-5.276 2.846-5.276-.996-.109-3.39.115-4.49 3.359-.478 1.45-.376 3.839.959 5.488-4.32-1.147-7.582-4.42-6.274-8.877a5.264 5.264 0 0 1 1.192-2.044c3.253-3.065 8.09-1.207 8.09-1.207-.185-1.055-1.57-2.509-3.967-2.652-2.511-.147-7.216 1.387-7.563 7.077-.325 5.271 3.008 9.07 11.287 10.24l.108.104s5.031 3.557 12.15 1.654c0 0 14.345-2.958 11.285-19.299 0 0 3.374-10.878-3.696-17.134 4.375 3.574 9.62 1.495 9.62 1.495-.38 9.911 3.874 11.171 3.874 11.171l.136-.082s-7.857 16.994-3.307 19.148c1.584.747 3.427.383 4.373-1.623.774-1.658-1.717 1.595-3.155.178-1.717-1.681.399-5.803 2.487-10.052 2.894-5.854 4.85-10.155 5.238-13.033 0 0 .425.297.911.065.02.022.039.041.057.042 1.122-.289 1.866-4.99 1.981-5.762.836-4.305.541-7.52.08-9.588Z"/></g><defs><clipPath id="a"><path fill="#fff" d="M0 0h192v192H0z"/></clipPath></defs></svg>
